X: 1
T: Polonesse från Österrike
R: polska
M: 3/4
L: 1/16
K: Gm
V: 1
D |: G3G FGAF G3A | B3B ABcA B2Bd | d2B2 B2F2 G2A2 | ABA2 A2F2 F2D2 | 
G3G FGAF G3A | B3B ABcA B2Bd | d2B2 B2F2 G3B |1 ABAF G4-G3D :|2 ABAF G4-G2Bc | 
|: d3d B2d2 B2d2 | f2=e2 c4-c2Bc | d3B B2F2 G2A2 | ABA2 A2F2 F2D2 |
G3G FGAF G3A | B3B ABcA B2Bd | d2B2 B2F2 G3B |1 ABAF G4-G2Bc  :|2 ABAF G8 | 
